X: 21041
T: DEAR TOM THIS BROWN JUG
Q: "Moderato"
%R: waltz
B: "Edinburgh Repository of Music" v.2 p.104 #1
F: http://digital.nls.uk/special-collections-of-printed-music/pageturner.cfm?id=87776133
Z: 2015 John Chambers <jc:trillian.mit.edu>
M: 3/4
L: 1/8
K: D
d2 |\
a3 g f2 | {f}e2 d2 c2 | d3 e (3(fga) | A4 (dc) |\
B3 d c2 | (d2 f2 a2) | {b}a3 g f2 | e4 ag |
{g}f3 e d2 | a2 A2 e>d | {d}c3 B A2 | e4 e2 |\
f4 b^g | a4 cd | e3 f e2 | A4 (ec) |
A2 A2 (A/c/e/f/) | g2 f2 (3(dfa) | (ba) (gf) (ed) | a4 aa |\
d'2 c'2 b2 | {b}a2 (gf)(ed) | A4 (dc) |
f>e d(fed) |\
e>d egfe | f/d/e/f/ g/a/b/c'/ Hd'2 g2 | fb(ag)(fe) | d4 :|
